X:9
T:Nancy - friend
C:Taken down from W. Friend, Lydford by F.W.B. Jan 1889
%%VWML:SBG-1-1-250-0
F:http://www.vwml.org/record/SBG/1/1/250
Z:Original Sibleius Transcription by Martin and Shan Graebe
M:3/8
L:1/8
K:Am
(3cBc | dG (3GAG | FG d | cA/G/F | G2 B/>c/ |dgd | e/d/ c c/B/ | AA c/e/ | d2 B/c/ |
dg(3def | e2 e/>d/  cc/B/ | AAc | d2 c | dc A/>G/ | F (Gd) | cc/A/ F | G2 ||
T:Nancy - parsons 
T:Taken down from J. Parsons by F.W.B 
M:3/4
L:1/8
K:Em
G2 | c2 c2 c2 | c2 ed c2 | d2 G2 G2 | G4 G2 | d2 d2 d2 |d2 d2 d2 | d2 f2 e2 | c4 ef |
 g2 gf c2 |f2 f2 ge | c2 d2 B2 | c4 ef | g2 ge c2 |f4 ed | G2 B2 d2 | c4 ||
T:Nancy - ms music book
T:“Lovely Nancy”​from an MS. Music book of date [unintelligible word– Ed.] 1830.
M:3/4
L:1/8
K:G
BA | G2 G2 (3GAB | A2 A2 (3ABc | B2 gedB | B2 A2 BA | G2 G2 dB |A2 A2 ge | dedBcA | G6 :|| 
BA |G2 G2 ge|f2d2Bc|d2 gedB|B2A2BA|G2G2dB|A2A2ge|dedBcA|G4:||

